X: 16926
T: Have A Drink With Me
R: jig
M: 6/8
K: Gmajor
A|BAG EGD|EGD EGA|BAG EGD|EAA ABc|
BAG EGD|EGD EGA|BAG EGD|1 EGG G2:|2 EGG G2 D||
|:GBd e2d|dgG B2 A|GBd edB|c2 a aga|
bag egd|egd ega|bag egd|egg g3:|

